src/main/webapp/ui/src/assets/branding/dropbox/logo.svg

<svg enable-background="new 0 0 100 100" viewBox="0 0 100 100" xmlns="http://www.w3.org/2000/svg"><path d="m0 0h100v100h-100z" fill="#0061fe"/><path d="m33.5 23-16.4 10.5 16.4 10.5 16.5-10.5s-16.5-10.5-16.5-10.5zm32.9 0-16.4 10.5 16.4 10.5 16.5-10.5zm-49.3 31.5 16.4 10.5 16.5-10.5-16.5-10.5zm49.3-10.5-16.4 10.5 16.4 10.5 16.5-10.5zm-32.9 24.5 16.5 10.5 16.4-10.5-16.4-10.5z" fill="#fff"/></svg>

<?xml version="1.0" encoding="utf-8"?>
<!-- Generator: Adobe Illustrator 27.8.1, SVG Export Plug-In . SVG Version: 6.00 Build 0)  -->
<svg version="1.1" id="Layer_1" xmlns="http://www.w3.org/2000/svg" xmlns:xlink="http://www.w3.org/1999/xlink" x="0px" y="0px"
	 viewBox="0 0 100 100" style="enable-background:new 0 0 100 100;" xml:space="preserve">
<style type="text/css">
	.st0{fill:#0061FE;}
	.st1{fill:#FFFFFF;}
</style>
<rect y="0" class="st0" width="100" height="100"/>
<path class="st1" d="M33.5,23L17.1,33.5L33.5,44L50,33.5C50,33.5,33.5,23,33.5,23z M66.4,23L50,33.5L66.4,44l16.5-10.5L66.4,23z
	 M17.1,54.5L33.5,65L50,54.5L33.5,44L17.1,54.5z M66.4,44L50,54.5L66.4,65l16.5-10.5L66.4,44z M33.5,68.5L50,79l16.4-10.5L50,58
	L33.5,68.5z"/>
</svg>
